X: 48
I: linebreak $
T: Irish Lady, or Anniseed Water Robin
T: longways for as many as will
P: 
C: 
N: 
M: 3/4
L: 1/8
K: C major
P: A
 |: "Dm"d2e2f2 | "C"e2f2g2 | "F"c4c2 | "F"c4d2 | "C"e3fed | "C"c2d2ed | 
"Am"c2A2A2 |  [1 "Am"A6 :|]  [2 "Am"A4G2 :: 
P: B
"Dm"F2F2F2 | "F"F3ED2 | "Dm"f2f2f2 | 
"C"f3ed2 | "C"e4f2 | "Dm"g3fef | "Dm"d4A2 |  [1 "Dm"d4G2 :|]  [2 d6 |] 


